X:191
T:Ma viele
T:Les miracles de Notre-Dame
C:Gautier de Coincy (1177-1236)
M:4/4
L:1/8
Q:1/4=81
K:G 
V:1
e2 dc Bc d/2c/2c | BB Az B3G- | G2 A2-AB2c | d2 cB-B2 A2- | 
Az3 e2 dc | Bc d/2c/2c BB Az | B2 AG-G2 A2- | AB2c d2 cB- | 
B2 A3z3 | d3e3 f2 | ed cB B3z | z2 d2 e2<f2 | 
e2 zf2g e2 | f/2e/2d cc/2B/2 BA zB- | B2 G2-GA-A2 | e3c Bc d/2c/2c | B2<A2 |]
V:2 clef=perc stafflines=1 staffscale=0.8
c4 c4 | c4 c4 | c4 c4 | c4 c4 | 
c4 c4 | c4 c4 | c4 c4 | c4 c4 | 
c4 c4 | c4 c4 | c4 c4 | c4 c4 | 
c4 c4 | c4 c4 | c4 c4 | c4 c4 | c2 c2 |]






